icons/battery-4.svg

<svg xmlns="http://www.w3.org/2000/svg" width="96" height="96"><path d="M12 32v32h64v-4c0-2.1.8-4.2 2.3-5.7 1.5-1.5 3.6-2.3 5.7-2.3v-8c-2.1 0-4.2-.8-5.7-2.3-1.5-1.5-2.3-3.6-2.3-5.7v-4H12zm-8 0v32c0 2.1.8 4.2 2.3 5.7C7.8 71.2 9.9 72 12 72h64c2.1 0 4.2-.8 5.7-2.3 1.5-1.5 2.3-3.6 2.3-5.7v-4c2.1 0 4.2-.8 5.7-2.3 1.5-1.5 2.3-3.6 2.3-5.7v-8c0-2.1-.8-4.2-2.3-5.7-1.5-1.5-3.6-2.3-5.7-2.3v-4c0-2.1-.8-4.2-2.3-5.7-1.5-1.5-3.6-2.3-5.7-2.3H12c-2.1 0-4.2.8-5.7 2.3C4.8 27.8 4 29.9 4 32zm12 8c0-1.1.4-2.1 1.2-2.8.7-.8 1.7-1.2 2.8-1.2 1.1 0 2.1.4 2.8 1.2.8.7 1.2 1.7 1.2 2.8v16c0 1.1-.4 2.1-1.2 2.8-.7.8-1.7 1.2-2.8 1.2-1.1 0-2.1-.4-2.8-1.2-.8-.7-1.2-1.7-1.2-2.8V40zm16 0c0-1.1.4-2.1 1.2-2.8.7-.8 1.7-1.2 2.8-1.2 1.1 0 2.1.4 2.8 1.2.8.7 1.2 1.7 1.2 2.8v16c0 1.1-.4 2.1-1.2 2.8-.7.8-1.7 1.2-2.8 1.2-1.1 0-2.1-.4-2.8-1.2-.8-.7-1.2-1.7-1.2-2.8V40zm16 0c0-1.1.4-2.1 1.2-2.8.7-.8 1.7-1.2 2.8-1.2 1.1 0 2.1.4 2.8 1.2.8.7 1.2 1.7 1.2 2.8v16c0 1.1-.4 2.1-1.2 2.8-.7.8-1.7 1.2-2.8 1.2-1.1 0-2.1-.4-2.8-1.2-.8-.7-1.2-1.7-1.2-2.8V40zm16 0c0-1.1.4-2.1 1.2-2.8.7-.8 1.7-1.2 2.8-1.2 1.1 0 2.1.4 2.8 1.2.8.7 1.2 1.7 1.2 2.8v16c0 1.1-.4 2.1-1.2 2.8-.7.8-1.7 1.2-2.8 1.2-1.1 0-2.1-.4-2.8-1.2-.8-.7-1.2-1.7-1.2-2.8V40z" fill-rule="evenodd" fill="#454545"/></svg>

<?xml version="1.0" standalone="no"?><!-- Generator: Gravit.io --><svg xmlns="http://www.w3.org/2000/svg" xmlns:xlink="http://www.w3.org/1999/xlink" width="96" height="96"><path d=" M 12 32 L 12 64 L 76 64 L 76 60 C 76 57.9 76.8 55.8 78.3 54.3 C 79.8 52.8 81.9 52 84 52 L 84 44 C 81.9 44 79.8 43.2 78.3 41.7 C 76.8 40.2 76 38.1 76 36 L 76 32 L 12 32 Z  M 4 32 L 4 64 C 4 66.1 4.8 68.2 6.3 69.7 C 7.8 71.2 9.9 72 12 72 L 76 72 C 78.1 72 80.2 71.2 81.7 69.7 C 83.2 68.2 84 66.1 84 64 L 84 60 C 86.1 60 88.2 59.2 89.7 57.7 C 91.2 56.2 92 54.1 92 52 L 92 44 C 92 41.9 91.2 39.8 89.7 38.3 C 88.2 36.8 86.1 36 84 36 L 84 32 C 84 29.9 83.2 27.8 81.7 26.3 C 80.2 24.8 78.1 24 76 24 L 12 24 C 9.9 24 7.8 24.8 6.3 26.3 C 4.8 27.8 4 29.9 4 32 Z  M 16 40 C 16 38.9 16.4 37.9 17.2 37.2 C 17.9 36.4 18.9 36 20 36 C 21.1 36 22.1 36.4 22.8 37.2 C 23.6 37.9 24 38.9 24 40 L 24 56 C 24 57.1 23.6 58.1 22.8 58.8 C 22.1 59.6 21.1 60 20 60 C 18.9 60 17.9 59.6 17.2 58.8 C 16.4 58.1 16 57.1 16 56 L 16 40 Z  M 32 40 C 32 38.9 32.4 37.9 33.2 37.2 C 33.9 36.4 34.9 36 36 36 C 37.1 36 38.1 36.4 38.8 37.2 C 39.6 37.9 40 38.9 40 40 L 40 56 C 40 57.1 39.6 58.1 38.8 58.8 C 38.1 59.6 37.1 60 36 60 C 34.9 60 33.9 59.6 33.2 58.8 C 32.4 58.1 32 57.1 32 56 L 32 40 Z  M 48 40 C 48 38.9 48.4 37.9 49.2 37.2 C 49.9 36.4 50.9 36 52 36 C 53.1 36 54.1 36.4 54.8 37.2 C 55.6 37.9 56 38.9 56 40 L 56 56 C 56 57.1 55.6 58.1 54.8 58.8 C 54.1 59.6 53.1 60 52 60 C 50.9 60 49.9 59.6 49.2 58.8 C 48.4 58.1 48 57.1 48 56 L 48 40 Z  M 64 40 C 64 38.9 64.4 37.9 65.2 37.2 C 65.9 36.4 66.9 36 68 36 C 69.1 36 70.1 36.4 70.8 37.2 C 71.6 37.9 72 38.9 72 40 L 72 56 C 72 57.1 71.6 58.1 70.8 58.8 C 70.1 59.6 69.1 60 68 60 C 66.9 60 65.9 59.6 65.2 58.8 C 64.4 58.1 64 57.1 64 56 L 64 40 Z " fill-rule="evenodd" fill="#454545" stroke="none"/><mask id="_mask_tBjCSVPhm4iwW6tMijE52mzyueQLGFVs"><path d=" M 12 32 L 12 64 L 76 64 L 76 60 C 76 57.9 76.8 55.8 78.3 54.3 C 79.8 52.8 81.9 52 84 52 L 84 44 C 81.9 44 79.8 43.2 78.3 41.7 C 76.8 40.2 76 38.1 76 36 L 76 32 L 12 32 Z  M 4 32 L 4 64 C 4 66.1 4.8 68.2 6.3 69.7 C 7.8 71.2 9.9 72 12 72 L 76 72 C 78.1 72 80.2 71.2 81.7 69.7 C 83.2 68.2 84 66.1 84 64 L 84 60 C 86.1 60 88.2 59.2 89.7 57.7 C 91.2 56.2 92 54.1 92 52 L 92 44 C 92 41.9 91.2 39.8 89.7 38.3 C 88.2 36.8 86.1 36 84 36 L 84 32 C 84 29.9 83.2 27.8 81.7 26.3 C 80.2 24.8 78.1 24 76 24 L 12 24 C 9.9 24 7.8 24.8 6.3 26.3 C 4.8 27.8 4 29.9 4 32 Z  M 16 40 C 16 38.9 16.4 37.9 17.2 37.2 C 17.9 36.4 18.9 36 20 36 C 21.1 36 22.1 36.4 22.8 37.2 C 23.6 37.9 24 38.9 24 40 L 24 56 C 24 57.1 23.6 58.1 22.8 58.8 C 22.1 59.6 21.1 60 20 60 C 18.9 60 17.9 59.6 17.2 58.8 C 16.4 58.1 16 57.1 16 56 L 16 40 Z  M 32 40 C 32 38.9 32.4 37.9 33.2 37.2 C 33.9 36.4 34.9 36 36 36 C 37.1 36 38.1 36.4 38.8 37.2 C 39.6 37.9 40 38.9 40 40 L 40 56 C 40 57.1 39.6 58.1 38.8 58.8 C 38.1 59.6 37.1 60 36 60 C 34.9 60 33.9 59.6 33.2 58.8 C 32.4 58.1 32 57.1 32 56 L 32 40 Z  M 48 40 C 48 38.9 48.4 37.9 49.2 37.2 C 49.9 36.4 50.9 36 52 36 C 53.1 36 54.1 36.4 54.8 37.2 C 55.6 37.9 56 38.9 56 40 L 56 56 C 56 57.1 55.6 58.1 54.8 58.8 C 54.1 59.6 53.1 60 52 60 C 50.9 60 49.9 59.6 49.2 58.8 C 48.4 58.1 48 57.1 48 56 L 48 40 Z  M 64 40 C 64 38.9 64.4 37.9 65.2 37.2 C 65.9 36.4 66.9 36 68 36 C 69.1 36 70.1 36.4 70.8 37.2 C 71.6 37.9 72 38.9 72 40 L 72 56 C 72 57.1 71.6 58.1 70.8 58.8 C 70.1 59.6 69.1 60 68 60 C 66.9 60 65.9 59.6 65.2 58.8 C 64.4 58.1 64 57.1 64 56 L 64 40 Z " fill-rule="evenodd" fill="white" stroke="none"/></mask><path d=" M 12 32 L 12 64 L 76 64 L 76 60 C 76 57.9 76.8 55.8 78.3 54.3 C 79.8 52.8 81.9 52 84 52 L 84 44 C 81.9 44 79.8 43.2 78.3 41.7 C 76.8 40.2 76 38.1 76 36 L 76 32 L 12 32 Z  M 4 32 L 4 64 C 4 66.1 4.8 68.2 6.3 69.7 C 7.8 71.2 9.9 72 12 72 L 76 72 C 78.1 72 80.2 71.2 81.7 69.7 C 83.2 68.2 84 66.1 84 64 L 84 60 C 86.1 60 88.2 59.2 89.7 57.7 C 91.2 56.2 92 54.1 92 52 L 92 44 C 92 41.9 91.2 39.8 89.7 38.3 C 88.2 36.8 86.1 36 84 36 L 84 32 C 84 29.9 83.2 27.8 81.7 26.3 C 80.2 24.8 78.1 24 76 24 L 12 24 C 9.9 24 7.8 24.8 6.3 26.3 C 4.8 27.8 4 29.9 4 32 Z  M 16 40 C 16 38.9 16.4 37.9 17.2 37.2 C 17.9 36.4 18.9 36 20 36 C 21.1 36 22.1 36.4 22.8 37.2 C 23.6 37.9 24 38.9 24 40 L 24 56 C 24 57.1 23.6 58.1 22.8 58.8 C 22.1 59.6 21.1 60 20 60 C 18.9 60 17.9 59.6 17.2 58.8 C 16.4 58.1 16 57.1 16 56 L 16 40 Z  M 32 40 C 32 38.9 32.4 37.9 33.2 37.2 C 33.9 36.4 34.9 36 36 36 C 37.1 36 38.1 36.4 38.8 37.2 C 39.6 37.9 40 38.9 40 40 L 40 56 C 40 57.1 39.6 58.1 38.8 58.8 C 38.1 59.6 37.1 60 36 60 C 34.9 60 33.9 59.6 33.2 58.8 C 32.4 58.1 32 57.1 32 56 L 32 40 Z  M 48 40 C 48 38.9 48.4 37.9 49.2 37.2 C 49.9 36.4 50.9 36 52 36 C 53.1 36 54.1 36.4 54.8 37.2 C 55.6 37.9 56 38.9 56 40 L 56 56 C 56 57.1 55.6 58.1 54.8 58.8 C 54.1 59.6 53.1 60 52 60 C 50.9 60 49.9 59.6 49.2 58.8 C 48.4 58.1 48 57.1 48 56 L 48 40 Z  M 64 40 C 64 38.9 64.4 37.9 65.2 37.2 C 65.9 36.4 66.9 36 68 36 C 69.1 36 70.1 36.4 70.8 37.2 C 71.6 37.9 72 38.9 72 40 L 72 56 C 72 57.1 71.6 58.1 70.8 58.8 C 70.1 59.6 69.1 60 68 60 C 66.9 60 65.9 59.6 65.2 58.8 C 64.4 58.1 64 57.1 64 56 L 64 40 Z " fill-rule="evenodd" fill="none" stroke="none" stroke-width="16" mask="url(#_mask_tBjCSVPhm4iwW6tMijE52mzyueQLGFVs)"/></svg>
